X: 37775
T: Song For PJ
R: waltz
M: 3/4
K: Gmajor
D GA|:B3A Bc|B2 A2 G2|E3D E=F|E3D GA|
B3A Bc|B2 A2 GB|A3G AB|A3D GA
B3A Bc|B2 A2 G2|E3D E=F|E3D GA|
BG D3B|A3A GF|G6|1 G3D GA:|2 G2 B2 d2||
|:g4d2|d'2c'2b2|e3d e=f|e3e dc|
Bgg2d2|d'2c'2b2|a3g fe|f2 e2 dc|
Bgg2d2|d'2c'2b2|e3d e=f|e3e dc|
BG D3B|A3A GF|G6|1 G2 B2 d2:|2 G3||

